Catalina-light/actions/16/kstars_satellites.svg

<svg xmlns="http://www.w3.org/2000/svg" width="16" height="16" viewBox="0 0 16 16">
 <defs>
  <style id="current-color-scheme" type="text/css">
   .ColorScheme-Text { color:#5c616c; } .ColorScheme-Highlight { color:#5294e2; }
  </style>
 </defs>
 <path style="fill:currentColor" class="ColorScheme-Text" d="M 11 -0.13867188 L 11 0 L 5.7363281 7.1777344 A 4.5 4.5 0 0 1 6.1855469 7.3339844 C 5.6642369 7.1228844 5.097 7 4.5 7 C 3.307 7 2.1633125 7.4761125 1.3203125 8.3203125 A 4.5 4.5 0 0 0 0.69335938 9.1074219 L 2.7871094 11.201172 L 1.390625 13.105469 A 3.5 3.5 0 0 0 2.8964844 14.607422 L 4.7988281 13.212891 L 6.8945312 15.308594 A 4.5 4.5 0 0 0 7.6796875 14.679688 C 8.5238775 13.836687 8.9988 12.693 9 11.5 C 9.000001 10.9188 8.8803075 10.367422 8.6796875 9.8574219 A 4.5 4.5 0 0 1 8.8242188 10.261719 L 16 4.8613281 L 11 -0.13867188 z M 2.9140625 0.0859375 L 0.0859375 2.9160156 L 3.7578125 6.5859375 L 6.5859375 3.7578125 L 2.9140625 0.0859375 z M 12.242188 9.4140625 L 9.4140625 12.244141 L 13.085938 15.916016 L 15.914062 13.085938 L 12.242188 9.4140625 z M 0.74804688 13.914062 L 0 15.013672 L 1 16.013672 L 2.0195312 15.265625 A 4.5 4.5 0 0 1 0.74804688 13.994141 L 0.74804688 13.914062 z"/>
</svg>

<svg width="16" height="16" viewBox="0 0 16 16" xmlns="http://www.w3.org/2000/svg">
<defs>
<style id="current-color-scheme" type="text/css">.ColorScheme-Text { color:#5c616c; } .ColorScheme-Highlight { color:#5294e2; }</style>
</defs>
<path class="ColorScheme-Text" d="m11-0.13867v0.13867l-5.2637 7.1777a4.5 4.5 0 0 1 0.44922 0.15625c-0.52131-0.2111-1.0885-0.33398-1.6855-0.33398-1.193 0-2.3367 0.47611-3.1797 1.3203a4.5 4.5 0 0 0-0.62695 0.78711l2.0938 2.0938-1.3965 1.9043a3.5 3.5 0 0 0 1.5059 1.502l1.9023-1.3945 2.0957 2.0957a4.5 4.5 0 0 0 0.78516-0.62891c0.84419-0.843 1.3191-1.9867 1.3203-3.1797 1e-6 -0.5812-0.11969-1.1326-0.32031-1.6426a4.5 4.5 0 0 1 0.14453 0.4043l7.1758-5.4004-5-5zm-8.0859 0.22461-2.8281 2.8301 3.6719 3.6699 2.8281-2.8281-3.6719-3.6719zm9.3281 9.3281-2.8281 2.8301 3.6719 3.6719 2.8281-2.8301-3.6719-3.6719zm-11.494 4.5-0.74805 1.0996 1 1 1.0195-0.74805a4.5 4.5 0 0 1-1.2715-1.2715v-0.080079z" fill="currentColor"/>
</svg>
